X:1
T:Quasi adagio
T:Dance Song
T:Béla Bartók Revised and Arranged by the Composer, January 1945 
T:Book 1 (after Hungarian Folksongs)
T:For Children Nr 23, Sz 42
C:Bela bartok
%%score { 1 | ( 2 3 ) }
L:1/8
Q:1/4=152
M:2/4
K:C
V:1 treble nm="Piano"
V:2 bass 
V:3 bass 
V:1
"^Allegro grazioso,"!p! .!5!c2 .!2!G2 | (!3!G2 E2) | .!5!c2 .!2!G2 | (!3!G2 E2) | %4
!p!!<(! (!2!FEFG!<)! |!>(! .A2 G2)!>)! | .!1!D2 .!3!D2 | (!2!D2 C2) |!pp! (!2!FEFG | A2 G2) | %10
 .!1!D2 .!3!D2 | (!2!D2 C2) |!p! .!5!c2 .!2!G2 |!<(! (!3!G2 E2)!<)! |!>(! .c2 .G2 | %15
 (!3!G2!>)! E2) | (F!>(!EFG | A2 G2)!>)! | .!1!D2 .!3!D2 | (!2!D2 C2) |!pp! (!2!FEFG | A2 G2) | %22
 .!1!D2 .!3!D2 | (!2!D2 C2) | z4 | z4 | z4 | z4 | z4 | z4 |!mf! .c2 .G2 | (!3!G2 E2) | z4 | z4 | %34
 .!5!c2 .G2 | (!3!G2 .E2) | .!5!c2 .G2 | (!3!G2 E2) |!<(! (FEFG!<)! |!>(! A2 G2)!>)! | %40
 .!1!D2 .!3!D2 | (!2!D2 C2) |!pp! (!2!FEFG | A2 G2) | .!1!D2 .!3!D2 | (!2!D2 C2) | z4 | %47
 z2!p! !5!a2 | (!5!a2 !4
1
![cg]2) | z2 !4
2
![Bd]2 | (!4
2
![Bd]2 !3
1
![Ac]2) | %51
[Q:1/4=140]"^poco rall                -          -         -         -          -           -           -        -         -" z4 | %52
!mp! !5
1
![Ba]4 | !4
1
![Bg]4 | z4 |!f![Q:1/4=172]"^Vivo" .!5
3
1
![FBd]2 .[FBd]2 | %56
 ([FBd]2 !4
2
1
![EGc]2) |] %57
V:2
 !3!E,!5!C,D,C, | E,C,G,C, | E,C,D,C, | E,C,!1!CC, | !1!B,C,!1!G,C, | !2!F,C,!3!E,C, | %6
 !1!A,C,!2!F,C, | !4!D,C,!3!E,C, | !1!B,C,!1!G,C, | F,C,E,C, | !1!A,C,!2!F,C, | D,C,E,C, | %12
 !1!G,!5!E,!2!A,E, | !1!B,E,!1!CE, | !1!DE,!1!CE, | CE,!2!B,E, | (!1
2
![A,C]!5!E,[A,C]E, | %17
 [A,C]E,B,E, | !1
3
![F,A,]!4!E,[F,A,]E, | [F,A,]E,!5!D,E,) | (!1
2
![B,D]E,[B,D]E, | %21
 [B,D]E,[B,D]E, | !1
2
![F,A,]!3!E,[F,A,]E, | [F,A,]E,!4!D,!3!E,) |!p! (!1!F,!2!E,D,E, | %25
 F,E,D,!1!E, |!<(! F,E,D,!1!E, | !2!D,!3!C,!4!_B,,-!1!D,!<)! |!f! !^!!2![B,,C,]4- | [B,,C,]4- | %30
 [B,,C,]4- | [!courtesy!_B,,C,]2) z2 |!mf! (!1!D,C,_B,,-!1!D, | !>!!2![B,,C,]4- | %34
 [B,,C,]2) !3!D,!5!_B,, | !2!E,_B,,!1!F,B,, | !1!G,_B,,!1!F,B,, | !1!E,!4!_B,,!1!D,!3!B,, | %38
 !1!C,!2!_B,,C,B,, | C,_B,,A,,B,, | !4!G,,_B,,!5!F,,B,, | !5!E,,!2!_B,,E,,B,, | !1!C,_B,,C,B,, | %43
 C,_B,,A,,B,, | !4!G,,_B,,!5!F,,B,, | !5!E,,_B,,E,,B,, | z4 | z2[K:treble] !1
3
5
![DFB]2 | %48
 ([DFB]2 !2
4
![EG]2) |[K:bass] z2 !1
5
![G,F]2 | F4 | z4 |[K:treble] !2
4
![DF]4 | !1
3
![EG]4 | %54
 z4 |[K:bass] .!5![G,,G,]2 .[G,,G,]2 |!ped! ([G,,G,]2!ped-up! !1
3
![C,G,]2) |] %57
V:3
 x4 | x4 | x4 | x4 | x4 | x4 | x4 | x4 | x4 | x4 | x4 | x4 | x4 | x4 | x4 | x4 | x4 | x4 | x4 | %19
 x4 | x4 | x4 | x4 | x4 | x4 | x4 | x4 | x2 _B,,2 | x4 | x4 | x4 | x4 | x2 _B,,2 | x4 | x4 | x4 | %36
 x4 | x4 | x4 | x4 | x4 | x4 | x4 | x4 | x4 | x4 | x4 | x2[K:treble] x2 | x4 |[K:bass] x4 | %50
 (!1
5
!^G,2 !4!A,2) | x4 |[K:treble] x4 | x4 | x4 |[K:bass] x4 | x4 |] %57

